X:0
T:Skänklåt
R:Skänklåt
S: efter Gustaf Jernberg
O:Gävle, Gästrikland
M:2/4
L:1/8
Q: "BPM=82"
K:G fgp=1
D|:G3/2A/2 GF|D2 FA|c3/2d/2 cB|G2 (Bd)|A3/2G/2 FE/2F/2|GG EC|1D3 D:|2D3(A/2c/2)|:
Bd (d/2e/2)d/^c/2|dG AB|cB/2c/2 dB|A3/2B/2 (c/2B/2)c/2e/2|d3/2c/2 BA/2B/2|cc AF|1G3 (A/2c/2):|2G3 z|
